X: 74
T: A trip to the cottage
C: anon.
O: Ireland
B: Francis O'Neill: "The Dance Music of Ireland" (1907) no. 74
R: Double jig
Z: Transcribed by Frank Nordberg - http://www.musicaviva.com
F: http://www.musicaviva.com/abc/tunes/ireland/oneill-1001/oneill-1001-007
4.abc
M: 6/8
L: 1/8
K: Dmix
B/c/|dcd BGB|cBc AFA|DGG FAA|GBB ABc|dcd BGB|cBc AFA|DGG FGA|BGG G2H:|
|:d|gfe d2d|edc Bcd|ecA dBG|FAG FED|gfe d2d|edc Bcd|efg eag|fdd d2:|
W:
W:
W: From Musica Viva - http://www.musicaviva.com
W: the Internet center for free sheet music downloads.


